Images/Icons/Trello.svg

<svg width="100" height="100" viewBox="0 0 100 100" fill="none" xmlns="http://www.w3.org/2000/svg">
<path d="M68.7499 25H31.2501C27.798 25 25 27.8001 25 31.2501V68.7499C25 72.202 27.8001 75 31.2501 75H68.7499C72.202 75 75 72.1999 75 68.7499V31.2501C75 27.798 72.1999 25 68.7499 25ZM46.7494 64.1906C46.7494 65.8457 45.4065 67.1886 43.7504 67.1886H34.4992C32.843 67.1886 31.5001 65.8468 31.5001 64.1906V35.8104C31.5001 34.1553 32.843 32.8124 34.4992 32.8124H43.7504C45.4065 32.8124 46.7494 34.1543 46.7494 35.8104V64.1906ZM68.4999 51.6863C68.4999 53.3445 67.157 54.6873 65.5008 54.6873H56.2496C54.5935 54.6873 53.2506 53.3434 53.2506 51.6863V35.8135C53.2506 34.1553 54.5935 32.8124 56.2496 32.8124H65.5008C67.157 32.8124 68.4999 34.1563 68.4999 35.8135V51.6863Z" fill="black"/>
</svg>

<?xml version="1.0" encoding="utf-8"?>
<!-- Generator: Adobe Illustrator 27.1.1, SVG Export Plug-In . SVG Version: 6.00 Build 0)  -->
<svg version="1.1" id="Capa_1" xmlns="http://www.w3.org/2000/svg" xmlns:xlink="http://www.w3.org/1999/xlink" x="0px" y="0px"
	 viewBox="0 0 100 100" style="enable-background:new 0 0 100 100;" xml:space="preserve">
<style type="text/css">
	.st0{fill:#121212;}
</style>
<path class="st0" d="M68.7,25H31.3c-3.5,0-6.3,2.8-6.3,6.3v37.5c0,3.5,2.8,6.3,6.3,6.3h37.5c3.5,0,6.3-2.8,6.3-6.3V31.3
	C75,27.8,72.2,25,68.7,25z M46.7,64.2c0,1.7-1.3,3-3,3h-9.3c-1.7,0-3-1.3-3-3V35.8c0-1.7,1.3-3,3-3h9.3c1.7,0,3,1.3,3,3V64.2z
	 M68.5,51.7c0,1.7-1.3,3-3,3h-9.3c-1.7,0-3-1.3-3-3V35.8c0-1.7,1.3-3,3-3h9.3c1.7,0,3,1.3,3,3V51.7z"/>
</svg>
